!!!OTL: Abendlied im Freien.
!!!OTL-incipit: SONNE MIT EILENDEM FLUEGEL
!!!COM: C. F. Zelter
!!!ARE: Europa, Mitteleuropa, Deutschland
!!!SCT: F0995
!!!TXL: @@DE
!!!YEM: Copyright 1995, estate of Helmut Schaffrath.
**kern	**text
*ICvox	*
*M6/8	*
*k[b-e-a-]	*
*E-:	*
=1	=1
!LO:TX:a:t=Ziemlich langsam.	!
!LO:TX:a:t=Zweistimmig.	!
{8.b-^	Son-
16cc	-ne
8b-	mit
8b-^	ei-
8g	-len-
8a-	-dem
=2	=2
(4b-/	Flü-
8ee-/)	.
4b-/	-gel
8r}	.
=3	=3
{8b-/	len-
8g	-keſt
8a-	den
8b-/	Gang
8a-	du
8g	ʒur
=4	=4
[4.f	Fluth,
4f]	.
8r}	.
=5	=5
{8.b-^	Rö-
16cc	-theſt
8b-	die
8b-^	grü-
8g	-nen-
8a-	-den
=6	=6
(4b-/	Hü-
8ee-/)	.
4b-/	-gel
8r}	.
=7	=7
{8b-/	ſchei-
8g	-dend
8a-	in
8b-/	pur-
8a-	-pur-
8g	-ner
=8	=8
[4.f	Gluth.
4f]	.
8r}	.
=9	=9
{8.b-/	Fei-
16a/	-er-
8b-/	-lich
8cc	we-
8b-	-hen
8cc	die
=10	=10
4.dd	Ster-
4.ee-}	-ne
=11	=11
{8.dd	wandelnd
16ee-	.
8dd	in
8cc	lieb-
8dd	-li-
8cc	-cher
=12	=12
2.b-/}	Pracht;
=13	=13
{8b-	dort
8g	in
8a-	be-
8b-	-leuch-
8g	-te-
8a-	-ter
=14	=14
(4b-/	Fer-
8ee-/)	.
(4gg/	-ne
8ee-/)}	.
=15	=15
{8.b-	däm-
16cc	-mert
8b-	die
8b-	Göt-
8cc	-tin
8dd	der
=16	=16
[4.ee-	Nacht.
4ee-]	.
8r}	.
==	==
!!!AGN: Natur -, Tageszeiten - Lied, Abend
!!!ONB: ESAC (Essen Associative Code) Database: FINK
!!!AMT: compound duple
!!!AIN: vox
!!!EED: Helmut Schaffrath
!!!EEV: 1.0
!!Text: F. Kind
!!!GTL: Lieder um Preise der Natur.
!!!source: Musikalischer Hausschatz der Deutschen. Eine Sammlung von über 1000 Liedern und Gesängen mit Singstimmen und Klavierbegleitung. Leipzig, Litterarisches Verlags-Haus.
!!!page: 750
!!!ENC: Anna Maria Matuszewska
!!!EEV: 2025/03/20
*-	*-
